Humanity/actions/16/help-contents.svg

<?xml version="1.0" encoding="UTF-8" standalone="no"?>
<!-- Created with Inkscape (http://www.inkscape.org/) -->

<svg
   xmlns:svg="http://www.w3.org/2000/svg"
   xmlns="http://www.w3.org/2000/svg"
   xmlns:xlink="http://www.w3.org/1999/xlink"
   version="1.0"
   width="16"
   height="16"
   id="svg2469">
  <defs
     id="defs2471">
    <linearGradient
       id="linearGradient4873">
      <stop
         id="stop4875"
         style="stop-color:white;stop-opacity:1"
         offset="0" />
      <stop
         id="stop4877"
         style="stop-color:white;stop-opacity:0"
         offset="1" />
    </linearGradient>
    <linearGradient
       x1="63.397362"
       y1="-12.489107"
       x2="63.397362"
       y2="5.4675598"
       id="linearGradient2406"
       xlink:href="#linearGradient4873"
       gradientUnits="userSpaceOnUse"
       gradientTransform="matrix(0.7432394,0,0,0.7432224,-38.229789,10.609333)" />
    <linearGradient
       id="linearGradient2490-182-124">
      <stop
         id="stop2788"
         style="stop-color:#1f4b6a;stop-opacity:1"
         offset="0" />
      <stop
         id="stop2790"
         style="stop-color:#4083c2;stop-opacity:1"
         offset="1" />
    </linearGradient>
    <linearGradient
       x1="18.379412"
       y1="44.980297"
       x2="18.379412"
       y2="3.0816143"
       id="linearGradient2411"
       xlink:href="#linearGradient2490-182-124"
       gradientUnits="userSpaceOnUse"
       gradientTransform="matrix(0.3685738,0,0,0.3685738,-0.84577,-0.8457701)" />
    <linearGradient
       id="linearGradient3242-187-536">
      <stop
         id="stop2778"
         style="stop-color:#8badea;stop-opacity:1"
         offset="0" />
      <stop
         id="stop2780"
         style="stop-color:#6396cd;stop-opacity:1"
         offset="0.26238" />
      <stop
         id="stop2782"
         style="stop-color:#3b7caf;stop-opacity:1"
         offset="0.66093999" />
      <stop
         id="stop2784"
         style="stop-color:#194c70;stop-opacity:1"
         offset="1" />
    </linearGradient>
    <radialGradient
       cx="23.895569"
       cy="3.9900031"
       r="20.397499"
       fx="23.895569"
       fy="3.9900031"
       id="radialGradient2409"
       xlink:href="#linearGradient3242-187-536"
       gradientUnits="userSpaceOnUse"
       gradientTransform="matrix(0,0.8796593,-1.1611346,0,12.632931,-21.08413)" />
  </defs>
  <g
     id="layer1">
    <g
       id="g2493">
      <path
         d="m 8.0000011,0.50182787 c -4.1372321,0 -7.4981741,3.36093913 -7.4981741,7.49817173 0,4.1372334 3.360942,7.4981754 7.4981741,7.4981724 4.1372309,0 7.4981759,-3.360939 7.4981719,-7.4981724 0,-4.1372326 -3.360941,-7.49817173 -7.4981719,-7.49817173 z"
         id="path2555"
         style="fill:url(#radialGradient2409);fill-opacity:1;stroke:url(#linearGradient2411);stroke-width:1.00365424;stroke-linecap:round;stroke-linejoin:round;stroke-miterlimit:4;stroke-opacity:1;stroke-dasharray:none;stroke-dashoffset:0" />
      <path
         d="M 14.500001,7.9997709 C 14.500001,11.589737 11.589636,14.5 8.0000818,14.5 4.4101984,14.5 1.5000001,11.589705 1.5000001,7.9997709 c 0,-3.5898006 2.9101983,-6.4997695 6.5000817,-6.4997695 3.5895542,0 6.4999192,2.9099689 6.4999192,6.4997695 l 0,0 z"
         id="path2463"
         style="opacity:0.4;fill:none;stroke:url(#linearGradient2406);stroke-width:1;stroke-miterlimit:4;stroke-opacity:1;stroke-dasharray:none" />
    </g>
    <path
       d="M 8.3414142,9.9859798 C 8.3166346,9.0787641 8.5148047,8.1980502 9.3504899,7.5742079 10.233188,6.8686812 11.083296,5.9859722 10.993458,4.9454572 10.973841,3.9419751 9.8338672,3.1556375 8.605627,3.0425759 7.2240574,2.846273 5.5523673,3.3317048 5.0894119,4.4383227 4.8546122,4.9765436 5.0723491,5.9421749 5.8603356,5.9421749 c 0.4608941,0 0.6725855,-0.3053592 0.7073635,-0.5846914 0.026312,-0.211351 -0.058288,-0.4000864 -0.1082498,-0.5746636 -0.056929,-0.19892 0.1860948,-0.5844493 0.4507816,-0.7415272 0.221175,-0.13126 0.4525815,-0.1752734 0.4866925,-0.183681 0.794304,-0.1957868 1.5861109,0.236679 1.9164669,0.763044 0.330356,0.5263639 -0.033266,1.3247554 -0.556071,2.1011604 -0.5228054,0.776406 -1.0838678,1.6582439 -1.0816261,2.5949 0,0.356586 -0.030978,0.4777262 -0.00897,0.6219919 0.017586,0.115264 0.3897098,0.101334 0.6746888,0.047272 z M 7.9789187,11.207044 c -0.7594802,-0.04229 -1.2851464,0.840767 -0.8288879,1.403394 0.40746,0.621196 1.5498839,0.467848 1.7456953,-0.235593 0.2035731,-0.547016 -0.2863285,-1.176932 -0.9168074,-1.167802 l 0,10e-7 z"
       id="path3298"
       style="font-size:72px;font-style:normal;font-weight:bold;fill:white;fill-opacity:1;stroke:none;font-family:Standard Symbols L" />
  </g>
</svg>

<?xml version="1.0" encoding="UTF-8" standalone="no"?>
<!-- Created with Inkscape (http://www.inkscape.org/) -->
<svg id="svg2469" xmlns="http://www.w3.org/2000/svg" height="16" width="16" version="1.0" xmlns:xlink="http://www.w3.org/1999/xlink">
 <defs id="defs2471">
  <linearGradient id="linearGradient2406" y2="5.4676" gradientUnits="userSpaceOnUse" x2="63.397" gradientTransform="matrix(.74324 0 0 .74322 -38.23 10.609)" y1="-12.489" x1="63.397">
   <stop id="stop4875" style="stop-color:#fff" offset="0"/>
   <stop id="stop4877" style="stop-color:#fff;stop-opacity:0" offset="1"/>
  </linearGradient>
  <linearGradient id="linearGradient2411" y2="3.0816" gradientUnits="userSpaceOnUse" x2="18.379" gradientTransform="matrix(.36857 0 0 .36857 -.84577 -.84577)" y1="44.98" x1="18.379">
   <stop id="stop2788" style="stop-color:#1f4b6a" offset="0"/>
   <stop id="stop2790" style="stop-color:#4083c2" offset="1"/>
  </linearGradient>
  <radialGradient id="radialGradient2409" gradientUnits="userSpaceOnUse" cy="3.99" cx="23.896" gradientTransform="matrix(0 .87966 -1.1611 0 12.633 -21.084)" r="20.397">
   <stop id="stop2778" style="stop-color:#8badea" offset="0"/>
   <stop id="stop2780" style="stop-color:#6396cd" offset=".26238"/>
   <stop id="stop2782" style="stop-color:#3b7caf" offset=".66094"/>
   <stop id="stop2784" style="stop-color:#194c70" offset="1"/>
  </radialGradient>
 </defs>
 <g id="layer1">
  <g id="g2493">
   <path id="path2555" style="stroke-linejoin:round;stroke:url(#linearGradient2411);stroke-linecap:round;stroke-width:1.0037;fill:url(#radialGradient2409)" d="m8 0.50183c-4.1372 0-7.4982 3.361-7.4982 7.4982 0.00003 4.137 3.361 7.498 7.4982 7.498 4.137 0 7.498-3.361 7.498-7.498 0-4.1372-3.361-7.4982-7.498-7.4982z"/>
   <path id="path2463" style="opacity:.4;stroke:url(#linearGradient2406);fill:none" d="m14.5 7.9998c0 3.5902-2.91 6.5002-6.4999 6.5002s-6.5001-2.91-6.5001-6.5002c0-3.5898 2.9102-6.4998 6.5001-6.4998s6.4999 2.91 6.4999 6.4998z"/>
  </g>
  <path id="path3298" style="fill:#fff" d="m8.3414 9.986c-0.0248-0.9072 0.1734-1.7879 1.0091-2.4118 0.8825-0.7055 1.7325-1.5882 1.6425-2.6287-0.019-1.0035-1.1591-1.7899-2.3874-1.9029-1.3815-0.1963-3.0532 0.2891-3.5162 1.3957-0.2348 0.5382-0.0171 1.5039 0.7709 1.5039 0.4609 0 0.6726-0.3054 0.7074-0.5847 0.0263-0.2114-0.0583-0.4001-0.1083-0.5747-0.0569-0.1989 0.1861-0.5844 0.4508-0.7415 0.2212-0.1313 0.4526-0.1753 0.4867-0.1837 0.7943-0.1958 1.5861 0.2367 1.9165 0.7631 0.3303 0.5263-0.0333 1.3247-0.5561 2.1011s-1.0838 1.6583-1.0816 2.5949c0 0.3566-0.031 0.4777-0.009 0.622 0.0176 0.1153 0.3897 0.1013 0.6747 0.0473zm-0.3625 1.221c-0.7595-0.042-1.2851 0.841-0.8289 1.403 0.4075 0.622 1.5499 0.468 1.7457-0.235 0.2036-0.547-0.2863-1.177-0.9168-1.168z"/>
 </g>
</svg>
